images/icons/littlelink.svg

<svg fill="none" height="24" viewBox="0 0 24 24" width="24" xmlns="http://www.w3.org/2000/svg" xmlns:xlink="http://www.w3.org/1999/xlink"><clipPath id="a"><path d="m0 0h24v24h-24z"/></clipPath><mask id="b" height="24" maskUnits="userSpaceOnUse" width="24" x="0" y="0"><path d="m24 0h-24v24h24z" fill="#fff"/></mask><g clip-path="url(#a)"><g clip-rule="evenodd" fill="#fff" fill-rule="evenodd" mask="url(#b)"><path d="m.717708 9.99764c-.956944.93356-.956944 2.44726 0 3.38086.956942.9336 2.508452.9336 3.465402 0l7.85039-7.65888 3.1801 3.10261c.957.93361 2.5085.93361 3.4654 0 .957-.9336.957-2.44728 0-3.38088l-4.8515-4.733239c-.4488-.437832-1.0283-.670335-1.616-.6975075-.7018-.0645131-1.4266.1653535-1.9639.6896005z"/><path d="m23.2823 14.0024c.9569-.9336.9569-2.4473 0-3.3809-.957-.93364-2.5085-.93364-3.4654 0l-7.8501 7.6586-3.17993-3.1023c-.95695-.9336-2.50846-.9336-3.46541 0-.95694.9336-.95694 2.4472.00001 3.3809l4.85153 4.7332c.4485.4376 1.0277.6701 1.615.6974.7019.0647 1.427-.1651 1.9644-.6895z"/></g></g></svg>

<svg width="24" height="24" viewBox="0 0 24 24" fill="none" xmlns="http://www.w3.org/2000/svg">
<g clip-path="url(#clip0_1432_8697)">
<mask id="mask0_1432_8697" style="mask-type:luminance" maskUnits="userSpaceOnUse" x="0" y="0" width="24" height="24">
<path d="M24 0H0V24H24V0Z" fill="white"/>
</mask>
<g mask="url(#mask0_1432_8697)">
<path fill-rule="evenodd" clip-rule="evenodd" d="M0.717708 9.99764C-0.239236 10.9312 -0.239236 12.4449 0.717708 13.3785C1.67465 14.3121 3.22616 14.3121 4.18311 13.3785L12.0335 5.71962L15.2136 8.82223C16.1706 9.75584 17.7221 9.75584 18.679 8.82223C19.636 7.88863 19.636 6.37495 18.679 5.44135L13.8275 0.708111C13.3787 0.270279 12.7992 0.037776 12.2115 0.0106035C11.5097 -0.0539096 10.7849 0.175957 10.2476 0.700204L0.717708 9.99764Z" fill="white"/>
<path fill-rule="evenodd" clip-rule="evenodd" d="M23.2823 14.0024C24.2392 13.0688 24.2392 11.5551 23.2823 10.6215C22.3253 9.68786 20.7738 9.68786 19.8169 10.6215L11.9668 18.2801L8.78687 15.1778C7.82992 14.2442 6.27841 14.2442 5.32146 15.1778C4.36452 16.1114 4.36452 17.625 5.32147 18.5587L10.173 23.2919C10.6215 23.7295 11.2007 23.962 11.788 23.9893C12.4899 24.054 13.215 23.8242 13.7524 23.2998L23.2823 14.0024Z" fill="white"/>
</g>
</g>
<defs>
<clipPath id="clip0_1432_8697">
<rect width="24" height="24" fill="white"/>
</clipPath>
</defs>
</svg>
